templates/main/source/images/visa.svg

<?xml version="1.0" encoding="utf-8"?>
<svg width="57px" height="19px" viewBox="0 0 57 19" version="1.1" xmlns:xlink="http://www.w3.org/1999/xlink" xmlns="http://www.w3.org/2000/svg">
  <desc>Created with Lunacy</desc>
  <g id="visa">
    <path d="M0 18.41L2.89 0L7.5 0L4.62 18.41L0 18.41L0 18.41Z" transform="translate(20.080078 0.3203125)" id="Path" fill="#01549A" stroke="none" />
    <path d="M13.85 0.770132C12.5344 0.254555 11.133 -0.00673226 9.72 0.000131808C5.16 0.000131808 1.95 2.50013 1.92 6.08013C1.92 8.73013 4.21 10.2001 5.92 11.0801C7.63 11.9601 8.33 12.5601 8.31 13.3601C8.31 14.6001 6.88 15.1601 5.55 15.1601C4.03938 15.1939 2.54421 14.8502 1.2 14.1601L0.62 13.8701L0 18.0001C1.63216 18.664 3.37799 19.0037 5.14 19.0001C9.99 19.0001 13.14 16.5301 13.14 12.7201C13.14 10.6201 11.93 9.03013 9.27 7.72013C7.65 6.87013 6.67 6.30013 6.68 5.44013C6.69 4.58013 7.52 3.86013 9.32 3.86013C10.5088 3.8338 11.6882 4.07651 12.77 4.57013L13.19 4.78013L13.85 0.770132Z" transform="translate(27.580078 0)" id="Path" fill="#01549A" stroke="none" />
    <path d="M9.27 0.0164541L12.83 0.0164541L16.57 18.4065L12.32 18.4065C12.32 18.4065 11.9 16.2865 11.76 15.6465L5.85 15.6465L4.85 18.4165L0 18.4165L6.85 1.53645C7.19651 0.521883 8.2056 -0.11193 9.27 0.0164541ZM8.98 6.73645L7.14 11.8865L10.95 11.8865L9.88 6.56645L9.57 4.97645C9.37 5.67645 8.98 6.73645 8.98 6.73645Z" transform="translate(40.429688 0.3232422)" id="Shape" fill="#01549A" fill-rule="evenodd" stroke="none" />
    <path d="M11.38 0L6.86 12.55L6.38 10C5.27596 6.72661 3.00466 3.9747 0 2.27L4.17 18.37L9.04 18.37L16.27 0L11.38 0Z" transform="translate(4.830078 0.33984375)" id="Path" fill="#01549A" stroke="none" />
    <path d="M7.51 0.00921154L0.07 0.00921154L0 0.389212C5.79 1.90921 9.62 5.59921 11.22 10.0192L9.6 1.55921C9.40446 0.582673 8.50125 -0.0871768 7.51 0.00921154Z" transform="translate(0 0.3203125)" id="Path" fill="#F7A707" stroke="none" />
  </g>
</svg>

<svg width="57" height="19" viewBox="0 0 57 19" xmlns:xlink="http://www.w3.org/1999/xlink" xmlns="http://www.w3.org/2000/svg"><g id="visa" stroke="none"><path d="M0 18.41L2.89 0H7.5L4.62 18.41H0z" transform="translate(20.08 .32)" id="Path" fill="#01549A"/><path d="M13.85.77A11.17 11.17 0 009.72 0c-4.56 0-7.77 2.5-7.8 6.08 0 2.65 2.29 4.12 4 5 1.71.88 2.41 1.48 2.39 2.28 0 1.24-1.43 1.8-2.76 1.8a9.08 9.08 0 01-4.35-1l-.58-.29L0 18a13.568 13.568 0 005.14 1c4.85 0 8-2.47 8-6.28 0-2.1-1.21-3.69-3.87-5-1.62-.85-2.6-1.42-2.59-2.28.01-.86.84-1.58 2.64-1.58a7.89 7.89 0 013.45.71l.42.21.66-4.01z" transform="translate(27.58)" id="Path" fill="#01549A"/><path d="M9.27.016h3.56l3.74 18.39h-4.25s-.42-2.12-.56-2.76H5.85l-1 2.77H0l6.85-16.88A2.27 2.27 0 019.27.016zm-.29 6.72l-1.84 5.15h3.81l-1.07-5.32-.31-1.59c-.2.7-.59 1.76-.59 1.76z" transform="translate(40.43 .323)" id="Shape" fill="#01549A" fill-rule="evenodd"/><path d="M11.38 0L6.86 12.55 6.38 10A14.05 14.05 0 000 2.27l4.17 16.1h4.87L16.27 0h-4.89z" transform="translate(4.83 .34)" id="Path" fill="#01549A"/><path d="M7.51.01H.07L0 .39c5.79 1.52 9.62 5.21 11.22 9.63L9.6 1.56A1.94 1.94 0 007.51.01z" transform="translate(0 .32)" id="Path" fill="#F7A707"/></g></svg>
